X: 1
T: Star Wars Main Theme
C: John Williams
Q: "Jedi-Like"
O: from Jenny O'Connor tutorial
R: march
Z: 2016 John Chambers <jc:trillian.mit.edu>
S: www.thehotviolinist.com
M: 4/4
L: 1/8
K: G
(3uDDD |\
vG4 d4 | (3vcBA g4 d2 |\
(3ucBA g4 d2 | (3vcBc uA4 :|\
vD>D |\
vE3E cBAG | (3GAB AE F2 vD>D |
E4E cBAG | d2 A4 vD>D |\
vE3E cBAG | (3GAB AE F2 d>d |\
(3:2:2g2=f (3:2:2_e2d (3:2:2c2_B (3:2:2A2G |\
d6 uDDD | vd8 |]
